material/.icons/material/numeric-9.svg

<svg xmlns="http://www.w3.org/2000/svg" viewBox="0 0 24 24"><path d="M13 17a2 2 0 002-2V9a2 2 0 00-2-2h-2a2 2 0 00-2 2v2a2 2 0 002 2h2v2H9v2h4m0-6h-2V9h2v2z"/></svg>

<?xml version="1.0" encoding="UTF-8"?><!DOCTYPE svg PUBLIC "-//W3C//DTD SVG 1.1//EN" "http://www.w3.org/Graphics/SVG/1.1/DTD/svg11.dtd"><svg xmlns="http://www.w3.org/2000/svg" xmlns:xlink="http://www.w3.org/1999/xlink" version="1.1" id="mdi-numeric-9" width="24" height="24" viewBox="0 0 24 24"><path d="M13,17A2,2 0 0,0 15,15V9A2,2 0 0,0 13,7H11A2,2 0 0,0 9,9V11A2,2 0 0,0 11,13H13V15H9V17H13M13,11H11V9H13V11Z" /></svg>
